!!!COM:	Bach, Johann Sebastian
!!!CDT:	1685/02/21/-1750/07/28/
!!!OTL@@DE:	Jesu, meine Freude
!!!SCT:	BWV 87/7
!!!PC#:	96
!!!AGN:	chorale
**kern	**kern	**kern	**kern
*ICvox	*ICvox	*ICvox	*ICvox
*Ibass	*Itenor	*Ialto	*Isoprn
*I"Bass	*I"Tenor	*I"Alto	*I"Soprano
*>[A,A,B]	*>[A,A,B]	*>[A,A,B]	*>[A,A,B]
*>norep[A,B]	*>norep[A,B]	*>norep[A,B]	*>norep[A,B]
*>A	*>A	*>A	*>A
*clefF4	*clefGv2	*clefG2	*clefG2
*k[b-]	*k[b-]	*k[b-]	*k[b-]
*d:	*d:	*d:	*d:
*M4/4	*M4/4	*M4/4	*M4/4
*met(c)	*met(c)	*met(c)	*met(c)
*MM100	*MM100	*MM100	*MM100
=1-	=1-	=1-	=1-
8DL	4d	4f	4a
8EJ	.	.	.
8FL	4d	4f	4a
8DJ	.	.	.
4B-X	8dL	4e	4g
.	8c#J	.	.
8AL	4d	4d	4f
8GJ	.	.	.
=2	=2	=2	=2
4A	8AL	4d	2e
.	8B-	.	.
4AA	8A	4c#	.
.	8GJ	.	.
2D;	2F;	2A;	2d;
=3	=3	=3	=3
8DL	4d	4f	4a
8EJ	.	.	.
8FL	4d	4f	4a
8DJ	.	.	.
4G	8dL	8fL	4b
.	8BJ	8dJ	.
8FL	4e	4g	4cc#
8EJ	.	.	.
=4	=4	=4	=4
8FL	8dL	4a	2dd
16GL	16eL	.	.
16AJJ	16fJJ	.	.
4B-X	8eL	4g	.
.	8dJ	.	.
2A;	2e;	2a;	2cc#;
=5	=5	=5	=5
8FL	4A	4a	8ddL
8E	.	.	8eeJ
8D	4d	4a	4ff
8FJ	.	.	.
8GL	4d	4b-X	4ee
8EJ	.	.	.
4A	4c#	8aL	4ee
.	.	8gJ	.
=6	=6	=6	=6
1D;	1A;	1f;	1dd;
=7:|!	=7:|!	=7:|!	=7:|!
*>B	*>B	*>B	*>B
8DL	4d	8fL	4a
8EJ	.	8gJ	.
8FL	4d	4a	4a
8DJ	.	.	.
4G	4d	8aL	4b-
.	.	8gJ	.
8AL	4c	4f	4a
8B-J	.	.	.
=8	=8	=8	=8
4c	8cL	4f	8gL
.	8A	.	16aL
.	.	.	16b-JJ
4C	8B-	4e	4g
.	8GJ	.	.
2F;	2A;	2c;	2f;
=9	=9	=9	=9
8FL	4c	4f	4a
8E	.	.	.
8D	4d	4f	4b
8FJ	.	.	.
8EL	4e	4g	4cc
8F	.	.	.
8G	4c#	4e	4a
8EJ	.	.	.
=10	=10	=10	=10
8F#L	8AL	8aL	4dd
8G#J	8BJ	8eJ	.
8AL	8cnXL	8eL	8ccL
8DJ	8AJ	8fJ	8bJ
2E	4A	8eL	2b
.	.	8f	.
.	4G#X	8e	.
.	.	8dJ	.
=11	=11	=11	=11
2AA;	2A;	2c#;	2a;
8DL	8FL	4d	4a
8EJ	8GJ	.	.
8FL	8AL	4d	4dd
8DJ	8FJ	.	.
=12	=12	=12	=12
4B-	4G	8dL	4g
.	.	8c#J	.
8AL	8AL	4d	8fL
8GJ	8B-J	.	8eJ
4A	8AL	8dL	2e
.	8E	16c#L	.
.	.	16BJJ	.
4AA	8A	4c#	.
.	8GJ	.	.
=13	=13	=13	=13
1D;	1F#;	1A;	1d;
==	==	==	==
*-	*-	*-	*-
!!!hum2abc: -Q ''
!!!title: @{PC#}. @{OTL@@DE}
!!!YOR1: 371 vierstimmige Choralges&auml;nge von Johann Sebastian Bach, 
!!!YOR2: 4th ed. by Alfred D&ouml;rffel (Leipzig: Breitkopf und H&auml;rtel, 
!!!YOR2: c.1875). 178 pp. Plate "V.A.10".  reprint: J.S. Bach, 371 Four-Part 
!!!YOR4: Chorales (New York: Associated Music Publishers, Inc., c.1940).
!!!SMS: B&H, 4th ed, Alfred D&ouml;rffel, c.1875, plate V.A.10
!!!EED:  Craig Stuart Sapp
!!!EEV:  2009/05/22
